X: 24
T:Did You See My Man Looking for Me
M:6/8
L:1/8
S:Capt. F. O'Neill
R:Air
K:G
"Moderato spiritoso"G/2F/2|D>GG A2 d|c>Ad c>AG|D>GG A2 d|c>AF G2:|
e/2f/2|g>fe f>dd|e>ce d>BG|g>fe f>dd|ece d2 e/2f/2|
g>fe f>dd|e>dg d>BG|F>GA B2 d|c>AF G2||
%
% Of this old folk song, I remember the following verse:
%    Did you see my man,   He was a fine man ?
%    Did you see my man looking for me ?
%    He wore a green jacket, a pair of white stockings,
%    A hump on his back and he's blind in one eye;
%    a corduroy breeches; his brogues full of stitches
%    Did you see my man looking for me ?

